!!!OTL: Battle of Alma
!!!ONM: 67.
**kern
*clefG2
*k[f#]
*G:
*MM80
*M6/8
{16d
16c
=1
4B
8d
4g
8a
=2
4b
8a
4b}
{8g
=3
4f#
8g
4a
8g
=4
4f#
8e
4d}
{8d
=5
4B
8d
4g
8a
=6
4b
8g
4a}
{(16b
16a)
=7
4g
8g
(8d
8e)
8f#
=8
4.g
4.g}
=9||
{4d
16d
16d
4d
8d
=10
4e
8d
8B
8d}
{8d
=11
4d
8d
4d
8d
=12
4e
8d
8B
8d}
{8d
=13
4B
8d
4g
8a
=14
4b
8g
8a
8b}
{8a
=15
4g
8e
(8d
8e)
8f#
=16
4.g
4g}
==
*-
!!!CNT: Folksongs of Maritime Canada
!!!MRD: 1928///-1932///
!!!OCL: Helen Creighton
!!!YOR: Songs and Ballads from Nova Scotia
!!!PPR: J.M. Dent & Sons, Limited
!!!PPP: Toronto, Canada
!!!PDT: 1932///
!!!reprint: Dover Publications, 1992: ISBN 0-486-21703-5
!!!ENC1: Craig Stuart Sapp (music and bibliographic data)                       
!!!ENC2: Marcus Pearce (phrase markings and key designations)                   
!!!ENC3: Darrell Conklin (phrase markings and key designations)   
!!!END: 2002/04/10/
!!!EEV: 2004/06/05
!!!MPN: Mr. Ben Henneberry
!!!PPG: 138
!!!EFL: 68/152
!!!ARE: Canada; Nova Scotia
!!!verses: 10
!!!VTS: 720605952
